src/components/AppLayout/Header/components/WalletIcon/icons/icon-coinbase.svg

<svg width="40" height="40" viewBox="0 0 40 40" fill="none" xmlns="http://www.w3.org/2000/svg">
	<path d="M20 40C31.0457 40 40 31.0457 40 20C40 8.9543 31.0457 0 20 0C8.9543 0 0 8.9543 0 20C0 31.0457 8.9543 40 20 40Z" fill="#1652F0"/>
	<path fill-rule="evenodd" clip-rule="evenodd" d="M5.45508 20.0006C5.45508 28.0338 11.9673 34.546 20.0006 34.546C28.0338 34.546 34.546 28.0338 34.546 20.0006C34.546 11.9673 28.0338 5.45508 20.0006 5.45508C11.9673 5.45508 5.45508 11.9673 5.45508 20.0006ZM17.3137 15.3145C16.2091 15.3145 15.3137 16.2099 15.3137 17.3145V22.6882C15.3137 23.7928 16.2091 24.6882 17.3137 24.6882H22.6874C23.792 24.6882 24.6874 23.7928 24.6874 22.6882V17.3145C24.6874 16.2099 23.792 15.3145 22.6874 15.3145H17.3137Z" fill="white"/>
</svg>

<svg width="40" height="40" fill="none" xmlns="http://www.w3.org/2000/svg"><path d="M20 40c11.046 0 20-8.954 20-20S31.046 0 20 0 0 8.954 0 20s8.954 20 20 20z" fill="#1652F0"/><path fill-rule="evenodd" clip-rule="evenodd" d="M5.455 20c0 8.034 6.512 14.546 14.546 14.546 8.033 0 14.545-6.512 14.545-14.545 0-8.034-6.512-14.546-14.545-14.546-8.034 0-14.546 6.512-14.546 14.546zm11.859-4.685a2 2 0 0 0-2 2v5.373a2 2 0 0 0 2 2h5.373a2 2 0 0 0 2-2v-5.373a2 2 0 0 0-2-2h-5.373z" fill="#fff"/></svg>
